X:1
T: Miss Thornton's Reel
C:
R:Reel
Q: 232
K:G
M:4/4
L:1/8
D|G2 Bd gd Bd|cB AB ce dc|BG AF GB dg|ec AF GF ED|
G2 Bd gd Bd|cB AB ce dc|BG AF GB dg|ec AF G3g|
|:b2 ag b2 ag|eg dg eg dg|b2 ag b2 ag|eg fa gf ga|
bg ag bg ag|eg dg eg dg|bg af gf ed|eg fa ge dB:|
G2 Bd gd Bd|cB AB ce dc|BG AF GB dg|ec AF GF ED|
G2 Bd gd Bd|cB AB ce dc|BG AF GB dg|ec AF G3||
